X: 126004
M: 2/4
L: 1/16
K: D
(AF) |\
fdfd gege   | afdf ecAF |\
ecec dBA^G   | A2A2A2 :|
|: (fg) |\
agfe dcBA | B2G2G2 (ga) |\
bagf edcB | c2A2A2 (fg) |\
afaf bgbg | afaf  bgbg |\
afbg fedc | d2d2d2 :|


